icons/ecr_image.svg

<?xml version="1.0" encoding="UTF-8"?>
<svg width="48px" height="48px" viewBox="0 0 48 48" version="1.1" xmlns="http://www.w3.org/2000/svg" xmlns:xlink="http://www.w3.org/1999/xlink">
    <title>Icon-Resource/Containers/Res_Amazon-Elastic-Container-Registry_Image_48_Light</title>
    <g id="Icon-Resource/Containers/Res_Amazon-Elastic-Container-Registry_Image_48" stroke="none" stroke-width="1" fill="none" fill-rule="evenodd">
        <path d="M19.9998,14.9998 C21.6538,14.9998 22.9998,16.3458 22.9998,17.9998 C22.9998,19.6538 21.6538,20.9998 19.9998,20.9998 C18.3458,20.9998 16.9998,19.6538 16.9998,17.9998 C16.9998,16.3458 18.3458,14.9998 19.9998,14.9998 L19.9998,14.9998 Z M19.9998,22.9998 C22.7568,22.9998 24.9998,20.7568 24.9998,17.9998 C24.9998,15.2428 22.7568,12.9998 19.9998,12.9998 C17.2428,12.9998 14.9998,15.2428 14.9998,17.9998 C14.9998,20.7568 17.2428,22.9998 19.9998,22.9998 L19.9998,22.9998 Z M3.9998,43.9998 L3.9998,34.4138 L11.9998,26.4138 L27.2928,41.7068 L28.7068,40.2928 L20.9138,32.4998 L31.9998,21.4138 L43.9998,33.4138 L43.9998,43.9998 L3.9998,43.9998 Z M43.9998,3.9998 L43.9998,30.5858 L32.7068,19.2928 C32.3158,18.9018 31.6838,18.9018 31.2928,19.2928 L19.4998,31.0858 L12.7068,24.2928 C12.3158,23.9018 11.6838,23.9018 11.2928,24.2928 L3.9998,31.5858 L3.9998,3.9998 L43.9998,3.9998 Z M44.9998,1.9998 L2.9998,1.9998 C2.4468,1.9998 1.9998,2.4468 1.9998,2.9998 L1.9998,44.9998 C1.9998,45.5528 2.4468,45.9998 2.9998,45.9998 L44.9998,45.9998 C45.5528,45.9998 45.9998,45.5528 45.9998,44.9998 L45.9998,2.9998 C45.9998,2.4468 45.5528,1.9998 44.9998,1.9998 L44.9998,1.9998 Z" id="Amazon-Elastic-Container-Registry_Image_Resource-Icon_light-bg" fill="#D45B07"></path>
    </g>
</svg>

<svg class="w-6 h-6" height="48" width="48" xmlns="http://www.w3.org/2000/svg"><path d="M20 15c1.654 0 3 1.346 3 3s-1.346 3-3 3-3-1.346-3-3 1.346-3 3-3zm0 8c2.757 0 5-2.243 5-5s-2.243-5-5-5-5 2.243-5 5 2.243 5 5 5zM4 44v-9.586l8-8 15.293 15.293 1.414-1.414-7.793-7.793L32 21.414l12 12V44H4zM44 4v26.586L32.707 19.293a.999.999 0 00-1.414 0L19.5 31.086l-6.793-6.793a.999.999 0 00-1.414 0L4 31.586V4h40zm1-2H3a1 1 0 00-1 1v42a1 1 0 001 1h42a1 1 0 001-1V3a1 1 0 00-1-1z" fill="#D45B07" fill-rule="evenodd"></path></svg>
